icons/bitrise-icon.svg

<?xml version="1.0" encoding="UTF-8"?>
<svg width="256px" height="211px" viewBox="0 0 256 211" version="1.1" xmlns="http://www.w3.org/2000/svg" xmlns:xlink="http://www.w3.org/1999/xlink" preserveAspectRatio="xMidYMid">
    <g>
        <path d="M125.527954,36.0238689 L132.915054,36.0293329 C164.889611,36.1246948 189.280624,37.1367764 204.805432,38.0789176 L206.535654,38.1858935 C222.955588,39.204184 236.575223,50.659952 240.393813,66.6980273 L240.968013,69.1476605 C244.029664,82.291287 248.032445,100.820978 250.784625,119.357028 L251.324656,123.02123 C253.194327,135.983976 254.727023,151.165995 255.922743,168.145218 C256.559174,178.200836 253.24973,187.874596 246.503556,195.384488 C239.757381,202.894381 230.465481,207.222115 220.409862,207.731261 L213.99626,208.017916 C192.301176,208.959383 161.833343,209.992023 129.430759,210.021757 L123.715384,210.016558 C92.3820203,209.931358 63.0607334,208.931692 42.0037396,208.017916 L35.5901378,207.731261 C25.4072328,207.349402 16.2426184,202.894381 9.49644389,195.384488 C2.75026938,187.874596 -0.559174723,178.200836 0.0772568347,168.145218 L0.318964094,164.781608 C1.46143332,149.203392 2.81099141,135.287978 4.53818213,123.120637 L4.91413668,120.540137 C7.84172184,100.4289 12.2967427,80.1903763 15.4789005,66.6980273 C19.2564298,50.8324044 32.625363,39.3265107 48.9315884,38.2183365 L54.2485385,37.8994396 C70.2585396,36.9883612 94.3990153,36.0703475 125.527954,36.0238689 L125.527954,36.0238689 Z M130.56422,53.4620936 L125.68188,53.4620936 C91.6491221,53.5134647 66.1506931,54.6295089 50.6099225,55.6241182 C41.827167,56.2605497 34.6991336,62.2430064 32.6625526,70.7711893 L31.8782082,74.0412703 C28.7977328,87.0367506 24.9286363,105.169042 22.3523613,123.085863 L21.9764379,125.572328 C20.1263425,138.145425 18.7167461,152.823128 17.6427678,169.290794 C17.2609089,174.63682 19.0429172,179.728272 22.606934,183.674148 C26.1709507,187.620023 31.0078305,189.911177 36.3538556,190.16575 L44.7657986,190.540692 C66.1451605,191.457099 95.398646,192.427046 126.56043,192.456228 L132.310448,192.450891 C166.69178,192.355481 198.506433,191.143308 219.646144,190.16575 C224.992169,189.911177 229.829049,187.620023 233.393066,183.674148 C236.829796,179.728272 238.611804,174.63682 238.611804,169.290794 L238.370128,166.021221 C237.14652,149.793614 235.692175,135.376948 233.902211,123.085863 C230.974626,103.611058 226.646891,83.8816793 223.59202,70.7711893 C221.555439,62.2430064 214.300119,56.1332634 205.64465,55.6241182 L200.931705,55.3376643 C185.148622,54.4265859 161.253559,53.5085722 130.56422,53.4620936 L130.56422,53.4620936 Z M156.384847,140.651374 C156.384847,156.307591 143.656216,169.036222 128,169.036222 C112.374332,169.036222 99.7427443,156.436137 99.4916751,141.11643 L99.4878662,140.651374 L156.384847,140.651374 Z M64.3568442,105.393066 C74.0236293,105.393066 81.7092479,113.070086 81.9179988,122.562044 L81.9223552,122.958577 L46.7913332,122.958577 C46.7913332,113.284817 54.6830845,105.393066 64.3568442,105.393066 Z M191.643155,105.393066 C201.309941,105.393066 208.995559,113.070086 209.20431,122.562044 L209.208666,122.958577 L174.077644,122.958577 C174.077644,113.284817 181.969396,105.393066 191.643155,105.393066 Z M128,0 C134.109743,0 138.946622,4.96416615 138.946622,10.9466228 C138.946622,16.9290794 133.982456,21.7659593 128,21.7659593 C122.017543,21.7659593 117.053377,16.8017931 117.053377,10.9466228 C117.053377,4.83687984 122.017543,0 128,0 Z" fill="#683D87" fill-rule="nonzero"></path>
    </g>
</svg>

<svg xmlns="http://www.w3.org/2000/svg" viewBox="0 0 256 210.022">
  <path fill="#683d87" d="m125.528 36.024 7.387.005c31.975.096 56.366 1.108 71.89 2.05l1.73.107c16.42 1.018 30.04 12.474 33.859 28.512l.574 2.45c3.062 13.143 7.064 31.673 9.817 50.21l.54 3.663c1.87 12.963 3.402 28.145 4.598 45.124.636 10.056-2.673 19.73-9.42 27.24-6.746 7.51-16.038 11.837-26.093 12.346l-6.414.287c-21.695.941-52.163 1.974-84.565 2.004l-5.716-.005c-31.333-.085-60.654-1.085-81.711-1.999l-6.414-.286c-10.183-.383-19.347-4.838-26.094-12.348-6.746-7.51-10.055-17.183-9.419-27.239l.242-3.363c1.142-15.579 2.492-29.494 4.22-41.661l.375-2.58c2.928-20.112 7.383-40.35 10.565-53.843 3.777-15.866 17.146-27.371 33.453-28.48l5.317-.319c16.01-.91 40.15-1.829 71.279-1.875zm5.036 17.438h-4.882c-34.033.051-59.531 1.168-75.072 2.162-8.783.637-15.91 6.619-17.947 15.147l-.785 3.27c-3.08 12.996-6.95 31.128-9.526 49.045l-.376 2.486c-1.85 12.573-3.26 27.251-4.333 43.719-.382 5.346 1.4 10.437 4.964 14.383 3.564 3.946 8.4 6.237 13.747 6.492l8.412.375c21.38.916 50.633 1.886 81.794 1.915l5.75-.005c34.382-.095 66.196-1.307 87.336-2.285 5.346-.254 10.183-2.546 13.747-6.492 3.437-3.945 5.219-9.037 5.219-14.383l-.242-3.27c-1.223-16.227-2.678-30.644-4.468-42.935-2.927-19.475-7.255-39.204-10.31-52.314-2.037-8.529-9.292-14.638-17.947-15.148l-4.713-.286c-15.783-.911-39.678-1.83-70.368-1.876zm25.82 87.19c0 15.656-12.728 28.384-28.384 28.384-15.626 0-28.257-12.6-28.508-27.92l-.004-.465zm-92.027-35.259c9.667 0 17.352 7.677 17.561 17.169l.004.397h-35.13c0-9.674 7.891-17.566 17.565-17.566zm127.286 0c9.667 0 17.353 7.677 17.561 17.169l.004.397h-35.13c0-9.674 7.891-17.566 17.565-17.566zM128 0c6.11 0 10.947 4.964 10.947 10.947 0 5.982-4.965 10.819-10.947 10.819-5.982 0-10.947-4.964-10.947-10.82C117.053 4.837 122.018 0 128 0z"/>
</svg>
